!!! OTL: Literature102
!!! Chapter: 5
!!! Section: III
!!! Page: 368
!!! Mode: 
!!! Encoder: DJB
**kern
*staff1
*I"Piano
=1-
*clefG2
*k[f#]
*e:
*M3/4
4r
[2b\
=2
2b\_
8b/L]
8a/J
=3
8g/L
8f#/J
2e/
=4
4cc\
4a/
4f#/
=5
2d#/
4e/
=6
4r
4a/
4a/
=7
4a/
8g/L
8f#/J
4g/
=8
4r
4.cc\
8ee\
=9
2cc\
4b\
=10
4r
4b\
4b\
=11
4ee\
2e/
=12
4cc\
4a/
4f#/
=13
2d#/
4e/
=14
!!linebreak:original
4r
4.b\
8b\
=15
4cc\
4.cc#\
8cc#\
=16
4dd\
4.dd#\
8dd#\
=17
4ee\
4e/
[4a/
=18
4a/]
4f#/
4b\
=19
4.b\
8a/
8g/L
8f#/J
=20
8g/L
8e/J
2d#/
=21
2e/
4r
==
*-
